X:1
T:Parson's Farewell
C:John Playford, The English Dancing Master, 1651
N:arr. Drea Leed. Matches Pile 2018.
M:C
L:1/8
P:AABB x3
K:A minor
P:A
|:"Am"c2A2 A2Bc | "G"d2G2 G3G | "F"ABc2 B2A2 | [1 "Em"G2E2 E4 :| [2 "Em"G2E2 E2e2 |:\
P:B
"C"c4 c2e2 | c4 c2e2 | 
cde2 cde2 | "G"d2B2 B4 | Bcd2 Bcd2 | "Am"c3B ABcd | "E"e2dc BAB2 |  [1 "Am"A6e2 :|] [2 A8 :|

